src/assets/images/svg/icons/open.svg

<svg width="55" height="56" viewBox="0 0 55 56" fill="none" xmlns="http://www.w3.org/2000/svg">
<path fill-rule="evenodd" clip-rule="evenodd" d="M34.375 6.88623C34.375 5.93544 35.1445 5.16467 36.0938 5.16467H48.125C49.0742 5.16467 49.8438 5.93544 49.8438 6.88623V18.9371C49.8438 19.8879 49.0742 20.6587 48.125 20.6587C47.1758 20.6587 46.4062 19.8879 46.4062 18.9371V11.0424L25.2778 32.2054C24.6066 32.8777 23.5184 32.8777 22.8472 32.2054C22.1759 31.5331 22.1759 30.443 22.8472 29.7707L43.9756 8.60779H36.0938C35.1445 8.60779 34.375 7.83702 34.375 6.88623ZM11.1719 15.494C10.4881 15.494 9.83236 15.7661 9.34887 16.2504C8.86537 16.7347 8.59375 17.3915 8.59375 18.0764V43.8997C8.59375 44.5846 8.86537 45.2414 9.34887 45.7257C9.83236 46.21 10.4881 46.4821 11.1719 46.4821H36.9531C37.2917 46.4821 37.6269 46.4153 37.9397 46.2855C38.2525 46.1557 38.5367 45.9655 38.7761 45.7257C39.0155 45.4859 39.2054 45.2013 39.335 44.888C39.4646 44.5746 39.5312 44.2388 39.5312 43.8997V24.1018C39.5312 23.151 40.3008 22.3803 41.25 22.3803C42.1992 22.3803 42.9688 23.151 42.9688 24.1018V43.8997C42.9688 44.691 42.8131 45.4745 42.5108 46.2056C42.2085 46.9366 41.7654 47.6009 41.2068 48.1604C40.6482 48.7199 39.9851 49.1637 39.2552 49.4665C38.5254 49.7693 37.7431 49.9252 36.9531 49.9252H11.1719C9.57643 49.9252 8.04633 49.2904 6.91819 48.1604C5.79004 47.0304 5.15625 45.4978 5.15625 43.8997V18.0764C5.15625 16.4783 5.79004 14.9457 6.91819 13.8157C8.04633 12.6857 9.57643 12.0509 11.1719 12.0509H29.1629C30.1121 12.0509 30.8816 12.8217 30.8816 13.7725C30.8816 14.7233 30.1121 15.494 29.1629 15.494H11.1719Z" fill="#EAEDF0"/>
</svg>

<svg xmlns="http://www.w3.org/2000/svg" width="55" height="56" fill="none"><path fill="#EAEDF0" fill-rule="evenodd" d="M34.375 6.886c0-.95.77-1.721 1.719-1.721h12.031c.95 0 1.719.77 1.719 1.721v12.051c0 .95-.77 1.722-1.719 1.722a1.72 1.72 0 0 1-1.719-1.722v-7.895L25.278 32.205a1.717 1.717 0 0 1-2.43 0 1.723 1.723 0 0 1 0-2.434L43.975 8.608h-7.882a1.72 1.72 0 0 1-1.719-1.722Zm-23.203 8.608c-.684 0-1.34.272-1.823.756a2.584 2.584 0 0 0-.755 1.826V43.9a2.584 2.584 0 0 0 2.578 2.582h25.781a2.574 2.574 0 0 0 2.382-1.594c.13-.313.196-.65.196-.988V24.102c0-.951.77-1.722 1.719-1.722.95 0 1.719.771 1.719 1.722V43.9a6.035 6.035 0 0 1-1.762 4.26 6.014 6.014 0 0 1-4.254 1.765H11.172a6.01 6.01 0 0 1-4.254-1.765 6.03 6.03 0 0 1-1.762-4.26V18.076a6.03 6.03 0 0 1 1.762-4.26 6.01 6.01 0 0 1 4.254-1.765h17.99c.95 0 1.72.77 1.72 1.722 0 .95-.77 1.721-1.72 1.721h-17.99Z" clip-rule="evenodd"/></svg>
